X:1
T:Title
%%score { 1 | ( 2 3 ) }
L:1/8
Q:1/4=94
M:2/4
K:D
V:1 treble nm="Grand Piano"
V:2 bass 
V:3 bass 
V:1
 [Fd]2 [Ac][GB] | [FA][Fd] F2 | AG [CE]2 | [GB][FA] [DF]2 | [Fd]2 [Ac][GB] | [FA]d F2 | %6
 [DFA]2 [Ge]2 | [Fd]4 |] %8
V:2
 [D,A,]2 [D,A,][D,A,] | [D,D][D,D] [D,A,D]2 | [E,A,C][E,A,C] [A,,A,]2 | [D,A,][D,A,] [D,A,]2 | %4
 [D,A,]2 [D,A,][D,A,] | z F [D,D]A, | D,2 [A,C]2 | [D,A,]4 |] %8
V:3
 x4 | x4 | x4 | x4 | x4 | [D,D]2 z2 | x4 | x4 |] %8

